X:54
%%NRChange 2024-10-11
T:Nordlys Schottische
C:Anja Praest, Karen Mose
D:Ph\/onix 2016 (Danish folk band)
R:Schottische
O:Denmark
Q:1/4=120
L:1/8
M:4/4
K:F
P:A
"Dm" D2 DE FEDF |"Am/C" E2 A2 E2 A2 |"D" D2 DE ^FEDF | "Am" E2 C2 A,2 =B,C |
"G" D=B, G,2- G,B,DG |"D" F2 FE DEFD | "Am/C" E2 ED "Am" C2 A,2 | C2 "Dm" D2 D4 :|
P:B
"Dm" d2 A2 d2 Ad |"Am/C" e2 A2 e2 Ae | "Bb"f2 fe defd | "Am"e4 cAec |
"G" =B2 BA GBdB | "Dm" A2 AF D2 DF |"C" E2 ED "Am" C2 A,2 | C2 "Dm" D2 D2 z2 :|

